src/-/IMG/Icons/20/Mastodon.svg

<svg height="20" viewBox="0 0 20 20" width="20" xmlns="http://www.w3.org/2000/svg" xmlns:xlink="http://www.w3.org/1999/xlink"><linearGradient id="a" x1="49.999997%" x2="49.999997%" y1="0%" y2="100.000056%"><stop offset="0" stop-color="#798dfd"/><stop offset="1" stop-color="#798dfd"/></linearGradient><path d="m9.17145749.00070559c2.92571011.01303772 4.20646001.20300782 4.55330551.25654563 2.1291933.32815526 3.9253571 2.02164851 4.2026161 4.17056663.0502819.53207209.0692688 1.17545022.0722054 1.81260157l-.0005687.47485954c-.0072376 1.09671128-.0519572 2.08436696-.0524564 2.33306453 0 .12544622-.0174394 1.27080071-.0244033 1.39169311-.1866098 3.0706478-2.0228457 4.2832639-3.9523866 4.6696026-.0261443.0081846-.0566852.0136307-.0871967.02-1.2232917.249077-2.5337802.3154155-3.7771079.3517848-.29732461.0081846-.59379344.0081846-.8910885.0081846-1.23624581.0003385-2.46815392-.1522155-3.66987515-.4544925-.00637377-.0017231-.01304262-.001877-.01947541-.0004001-.00643279.0014462-.01242295.0044924-.01752787.0088308-.00510491.0043385-.00914754.009877-.01180327.0161231-.00265574.0062769-.00386558.0131385-.00351148.0199693.03396393.4079386.11897704.8095081.25285572 1.1944622.16651474.4454156.74809175 1.5153239 2.91042275 1.5153239 1.25648843.0024 2.50881621-.150154 3.73092761-.4545234.0061967-.0014769.012659-.0015076.0188557-.0000615.0062263.0014462.0120689.0043077.0170853.0084s.0090885.0093231.0119213.0152616c.0028328.0059692.0043377.0124923.0044557.0191384v1.5071393c-.000236.0071077-.0020065.0140616-.0051934.0203693-.0031574.0062769-.0076426.0117538-.0131312.016-.3993344.3017848-.9425507.4736002-1.40639.6272003-.2046099.0672924-.4118459.1263693-.6216787.1772617-1.9074687.4529848-3.89823905.3434463-5.74937662-.3163387-1.72900611-.6326772-3.49375549-2.1834473-3.92971251-4.0469253-.23281376-1.0089852-.39685276-2.0338781-.49088593-3.0670171-.13601832-1.5553239-.14735301-3.11427864-.20577115-4.67597182-.04097986-1.08898522-.01743825-2.27615511.20315524-3.34698647.4586261-2.17436429 2.3489299-3.69605744 4.41884714-4.01512039.35923276-.05544988 1.03582615-.25725122 4.18954396-.25725122zm2.72751541 3.27175777c-1.0367114 0-1.8214228.41630792-2.34457357 1.24806223l-.50571144.88356972-.5048262-.88356972c-.52315078-.83175431-1.3078622-1.24806223-2.34631459-1.24806223-.89719665 0-1.61999988.32904633-2.17106542.96990823-.53418684.64236959-.80129502 1.50895468-.80129502 2.59978606v5.33864915h2.02806871v-5.18138752c0-1.09083138.44032128-1.64713938 1.32181958-1.64713938.97480321 0 1.46396055.65812344 1.46396055 1.95803186v2.83612464h2.0167081v-2.83612464c0-1.29990842.4882721-1.95803186 1.4630753-1.95803186.8867507 0 1.3227048.556308 1.3227048 1.64713938v5.18138752h2.0289254v-5.33864915c.0005892-1.09141599-.2659288-1.95803186-.799555-2.59978606-.552777-.6408619-1.2755802-.96990823-2.1719212-.96990823z" fill="url(#a)" transform="translate(1)"/></svg>

<?xml version="1.0" encoding="UTF-8"?>
<svg width="20px" height="20px" viewBox="0 0 20 20" version="1.1" xmlns="http://www.w3.org/2000/svg" xmlns:xlink="http://www.w3.org/1999/xlink">
    <title>Logo</title>
    <defs>
        <linearGradient x1="49.9999965%" y1="0%" x2="49.9999965%" y2="100.000056%" id="linearGradient-1">
            <stop stop-color="#6364FF" offset="0%"></stop>
            <stop stop-color="#563ACC" offset="100%"></stop>
        </linearGradient>
        <linearGradient x1="49.9999965%" y1="0%" x2="49.9999965%" y2="100.000056%" id="linearGradient-2">
            <stop stop-color="#798DFD" offset="0%"></stop>
            <stop stop-color="#798DFD" offset="100%"></stop>
        </linearGradient>
    </defs>
    <g id="Symbols" stroke="none" stroke-width="1" fill="none" fill-rule="evenodd">
        <g id="Cards-/-Mastodon-Toot" transform="translate(-314, -104)" fill="url(#linearGradient-2)" fill-rule="nonzero">
            <g id="Mastodon-Logo" transform="translate(315, 104)">
                <path d="M9.17145749,0.00070558711 C12.0971676,0.0137433132 13.3779175,0.203713408 13.724763,0.25725122 C15.8539563,0.585406479 17.6501201,2.27889973 17.9273791,4.42781785 C17.977661,4.95988994 17.9966479,5.60326807 17.9995845,6.24041942 L17.9990158,6.71527896 C17.9917782,7.81199024 17.9470586,8.79964592 17.9465594,9.04834349 C17.9465594,9.17378971 17.92912,10.3191442 17.9221561,10.4400366 C17.7355463,13.5106844 15.8993104,14.7233005 13.9697695,15.1096392 C13.9436252,15.1178238 13.9130843,15.1232699 13.8825728,15.1296392 C12.6592811,15.3787162 11.3487926,15.4450547 10.1054649,15.481424 C9.80814029,15.4896086 9.51167146,15.4896086 9.2143764,15.4896086 C7.97813059,15.4899471 6.74622248,15.3373931 5.54450125,15.0351161 C5.53812748,15.033393 5.53145863,15.0332391 5.52502584,15.034716 C5.51859305,15.0361622 5.51260289,15.0392084 5.50749797,15.0435468 C5.50239306,15.0478853 5.49835043,15.0534238 5.4956947,15.0596699 C5.49303896,15.0659468 5.49182912,15.0728084 5.49218322,15.0796392 C5.52614715,15.4875778 5.61116026,15.8891473 5.74503894,16.2741014 C5.91155368,16.719517 6.49313069,17.7894253 8.65546169,17.7894253 C9.91195012,17.7918253 11.1642779,17.6392713 12.3863893,17.3349019 C12.392586,17.333425 12.3990483,17.3333943 12.405245,17.3348404 C12.4114713,17.3362866 12.4173139,17.3391481 12.4223303,17.3432404 C12.4273467,17.3473327 12.4314188,17.3525635 12.4342516,17.358502 C12.4370844,17.3644712 12.4385893,17.3709943 12.4387073,17.3776404 L12.4387073,18.8847797 C12.4384713,18.8918874 12.4367008,18.8988413 12.4335139,18.905149 C12.4303565,18.9114259 12.4258713,18.9169028 12.4203827,18.921149 C12.0210483,19.2229338 11.477832,19.3947492 11.0139927,19.5483493 C10.8093828,19.6156417 10.6021468,19.6747186 10.392314,19.725611 C8.4848453,20.1785958 6.49407495,20.0690573 4.64293738,19.4092723 C2.91393127,18.7765951 1.14918189,17.225825 0.713224868,15.362347 C0.480411114,14.3533618 0.316372109,13.3284689 0.222338935,12.2953299 C0.0863206169,10.740006 0.0749859292,9.18105126 0.0165677891,7.61935808 C-0.0244120704,6.53037286 -0.000870456275,5.34320297 0.219723034,4.27237161 C0.678349133,2.09800732 2.56865293,0.576314167 4.63857017,0.25725122 C4.99780293,0.201801343 5.67439632,0 8.82811413,0 Z M11.8989729,3.27246336 C10.8622615,3.27246336 10.0775501,3.68877128 9.55439933,4.52052559 L9.04868789,5.40409531 L8.54386169,4.52052559 C8.02071091,3.68877128 7.23599949,3.27246336 6.1975471,3.27246336 C5.30035045,3.27246336 4.57754722,3.60150969 4.02648168,4.24237159 C3.49229484,4.88474118 3.22518666,5.75132627 3.22518666,6.84215765 L3.22518666,12.1808068 L5.25325537,12.1808068 L5.25325537,6.99941928 C5.25325537,5.9085879 5.69357665,5.3522799 6.57507495,5.3522799 C7.54987816,5.3522799 8.0390355,6.01040334 8.0390355,7.31031176 L8.0390355,10.1464364 L10.0557436,10.1464364 L10.0557436,7.31031176 C10.0557436,6.01040334 10.5440157,5.3522799 11.5188189,5.3522799 C12.4055696,5.3522799 12.8415237,5.9085879 12.8415237,6.99941928 L12.8415237,12.1808068 L14.8704491,12.1808068 L14.8704491,6.84215765 C14.8710383,5.75074166 14.6045203,4.88412579 14.0708941,4.24237159 C13.5181171,3.60150969 12.7953139,3.27246336 11.8989729,3.27246336 Z" id="Combined-Shape"></path>
            </g>
        </g>
    </g>
</svg>
